Resources/Icons/PCGEx_Editor_SnapResult.svg

<?xml version="1.0" encoding="UTF-8"?>
<svg id="icons" xmlns="http://www.w3.org/2000/svg" viewBox="0 0 100 100">
  <defs>
    <style>
      .cls-1 {
        fill: #fff;
      }

      .cls-2 {
        fill: #ffa627;
      }
    </style>
  </defs>
  <path d="M53.37,73.01c-5.9,5.89-15.49,5.89-21.38,0-5.89-5.9-5.89-15.49,0-21.38l12.56-12.56-7.07-7.07-12.56,12.56c-9.79,9.79-9.79,25.73,0,35.52,4.9,4.9,11.33,7.34,17.76,7.34s12.86-2.45,17.76-7.35l12.56-12.56-7.07-7.07-12.56,12.56ZM58.52,25.1l-7.07-7.07-7.52,7.52,7.07,7.07,7.52-7.52ZM79.9,46.48l-7.52,7.52,7.07,7.07,7.52-7.52-7.07-7.07Z"/>
  <path class="cls-1" d="M51.37,70.01c-5.9,5.89-15.49,5.89-21.38,0-5.89-5.9-5.89-15.49,0-21.38l12.56-12.56-7.07-7.07-12.56,12.56c-9.79,9.79-9.79,25.73,0,35.52,4.9,4.9,11.33,7.34,17.76,7.34s12.86-2.45,17.76-7.35l12.56-12.56-7.07-7.07-12.56,12.56ZM56.52,22.1l-7.07-7.07-7.52,7.52,7.07,7.07,7.52-7.52ZM77.9,43.48l-7.52,7.52,7.07,7.07,7.52-7.52-7.07-7.07Z"/>
  <polyline class="cls-2" points="94.72 67.95 94.72 94.35 68.32 94.35"/>
</svg>

<svg id="icons" xmlns="http://www.w3.org/2000/svg" viewBox="0 0 100 100">
    <defs>
        <style>.cls-1{fill:#fff;}.cls-2{fill:#ffa627;}</style>
    </defs>
    <path d="M53.37,73A15.12,15.12,0,0,1,32,51.63L44.55,39.07,37.48,32,24.92,44.56A25.12,25.12,0,0,0,60.44,80.08L73,67.52l-7.07-7.07ZM58.52,25.1,51.45,18l-7.52,7.52L51,32.62ZM79.9,46.48,72.38,54l7.07,7.07L87,53.55Z"/>
    <path class="cls-1"
          d="M51.37,70A15.12,15.12,0,0,1,30,48.63L42.55,36.07,35.48,29,22.92,41.56A25.12,25.12,0,0,0,58.44,77.08L71,64.52l-7.07-7.07ZM56.52,22.1,49.45,15l-7.52,7.52L49,29.62ZM77.9,43.48,70.38,51l7.07,7.07L85,50.55Z"/>
    <polyline class="cls-2" points="94.72 67.95 94.72 94.35 68.32 94.35"/>
</svg>
